rospo-icon-theme-classic-common/24x24/apps/bpython.svg

<svg height="24" width="24" xmlns="http://www.w3.org/2000/svg"><path d="m6.7916664 2.5004999c-2.1008002 0-3.7916669 1.2079166-3.7916669 2.7083333v3.7916666 6.5000002h8.6666665 1.625c1.500417 0 2.708333-1.690867 2.708333-3.791667v-1.583833c0-2.1008002-1.208184-3.6533493-2.708333-3.6250001h-5.2916662v1.9999999h1.8029945 1.5539057c.891677 0 1.6431.6445036 1.6431 1.4447262v1.944381c0 .800222-.752075 1.645478-1.6431 1.611393h-4.3569001v-1.611393-1.443881-1.0113927-.4333335-2.1666664-1.3335001h4.0000001v-.7916667c0-1.2081666-1.6242-2.2081667-3.725-2.2081667z" opacity=".2"/><path d="m11.791667 22.5c-2.1008007 0-3.7916674-1.207917-3.7916674-2.708333v-3.791667-6.5h8.6666664 1.625c1.500417 0 2.708333 1.690867 2.708333 3.791667v1.583833c0 2.1008-1.208184 3.653349-2.708333 3.625h-5.291666v-2h1.802994 1.553906c.891677 0 1.6431-.644503 1.6431-1.444726v-1.944381c0-.800222-.752075-1.645478-1.6431-1.611393h-4.3569v1.611393 1.443881 1.011393.433333 2.166667 1.3335h4v .791666c0 1.208167-1.6242 2.208167-3.725 2.208167z" opacity=".2"/><path d="m6.7916664 1.9999999c-2.1008002 0-3.7916669 1.2079166-3.7916669 2.7083333v3.7916666 6.5000002h8.6666665 1.625c1.500417 0 2.708333-1.690867 2.708333-3.791667v-1.583833c0-2.1008002-1.208184-3.6533493-2.708333-3.6250001h-5.2916662v1.9999999h1.8029945 1.5539057c.891677 0 1.6431.6445036 1.6431 1.4447265v1.9443807c0 .800222-.752075 1.645478-1.6431 1.611393h-4.3569001v-1.611393-1.4438807-1.011393-.4333335-2.1666664-1.3335001h4.0000001v-.7916667c0-1.2081666-1.6242-2.2081667-3.725-2.2081667z" fill="#4795d1"/><path d="m6.7910156 2c-2.1008002 0-3.7910156 1.2085677-3.7910156 2.7089844v.5c0-1.5004167 1.6902154-2.7089844 3.7910156-2.7089844h.484375c2.1008 0 3.7246094 1.0008178 3.7246094 2.2089844v-.5c0-1.2081666-1.6238094-2.2089844-3.7246094-2.2089844zm1.2089844 4v .5h5.291016c1.500149-.0283492 2.708984 1.5241998 2.708984 3.625v-.5c0-2.1008002-1.208835-3.6533492-2.708984-3.625zm5 5.388672c0 .800222-.751553 1.645413-1.642578 1.611328h-4.357422v.5h4.357422c.891025.034085 1.642578-.811106 1.642578-1.611328z" fill="#fff" opacity=".2"/><path d="m11.791667 21.9995c-2.1008007 0-3.7916674-1.207917-3.7916674-2.708333v-3.791667-6.5h8.6666664 1.625c1.500417 0 2.708333 1.690867 2.708333 3.791667v1.583833c0 2.1008-1.208184 3.653349-2.708333 3.625h-5.291666v-2h1.802994 1.553906c.891677 0 1.6431-.644503 1.6431-1.444726v-1.944381c0-.800222-.752075-1.645478-1.6431-1.611393h-4.3569v1.611393 1.443881 1.011393.433333 2.166667 1.3335h4v .791666c0 1.208167-1.6242 2.208167-3.725 2.208167z" fill="#ffc851"/><path d="m8 9v .5h8.666016 1.625c1.500417 0 2.708984 1.690216 2.708984 3.791016v-.5c0-2.1008-1.208567-3.791016-2.708984-3.791016h-1.625zm10 5.554688c0 .800222-.750901 1.445312-1.642578 1.445312h-1.554688-1.802734v.5h1.802734 1.554688c.891677 0 1.642578-.643136 1.642578-1.443359zm-6 4.445312v.5h4v-.5z" fill="#fff" opacity=".2"/><path d="m12.912109 9c .05268.1406561.087891.287214.087891.4433594v1.5566406h3v-1.375c0-.216019-.020369-.4216975-.044922-.625z" fill="#4795d1"/><path d="m9 3.5h1v1h-1z" opacity=".2"/><path d="m9 3h1v1h-1z" fill="#fff"/><path d="m14 20.5h1v1h-1z" opacity=".2"/><path d="m14 20h1v1h-1z" fill="#fff"/></svg>

<svg xmlns="http://www.w3.org/2000/svg" width="24" height="24" version="1">
 <path style="opacity:0.2" d="m 6.7916664,2.5004999 c -2.1008002,0 -3.7916669,1.2079166 -3.7916669,2.7083333 l 0,3.7916666 0,6.5000002 8.6666665,0 1.625,0 c 1.500417,0 2.708333,-1.690867 2.708333,-3.791667 l 0,-1.583833 c 0,-2.1008002 -1.208184,-3.6533493 -2.708333,-3.6250001 l -5.2916662,0 0,1.9999999 1.8029945,0 1.5539057,0 c 0.891677,0 1.6431,0.6445036 1.6431,1.4447262 l 0,1.944381 c 0,0.800222 -0.752075,1.645478 -1.6431,1.611393 l -4.3569001,0 0,-1.611393 0,-1.443881 0,-1.0113927 0,-0.4333335 0,-2.1666664 0,-1.3335001 4.0000001,0 0,-0.7916667 C 11,3.5005 9.3758,2.5004999 7.275,2.5004999 Z"/>
 <path style="opacity:0.2" d="m 11.791667,22.5 c -2.1008007,0 -3.7916674,-1.207917 -3.7916674,-2.708333 l 0,-3.791667 0,-6.5 8.6666664,0 1.625,0 c 1.500417,0 2.708333,1.690867 2.708333,3.791667 l 0,1.583833 c 0,2.1008 -1.208184,3.653349 -2.708333,3.625 l -5.291666,0 0,-2 1.802994,0 1.553906,0 C 17.248577,16.5005 18,15.855997 18,15.055774 l 0,-1.944381 C 18,12.311171 17.247925,11.465915 16.3569,11.5 l -4.3569,0 0,1.611393 0,1.443881 0,1.011393 L 12,16 l 0,2.166667 0,1.3335 4,0 0,0.791666 C 16,21.5 14.3758,22.5 12.275,22.5 Z"/>
 <path style="fill:#4795d1" d="m 6.7916664,1.9999999 c -2.1008002,0 -3.7916669,1.2079166 -3.7916669,2.7083333 l 0,3.7916666 0,6.5000002 8.6666665,0 1.625,0 c 1.500417,0 2.708333,-1.690867 2.708333,-3.791667 l 0,-1.583833 c 0,-2.1008002 -1.208184,-3.6533493 -2.708333,-3.6250001 l -5.2916662,0 0,1.9999999 1.8029945,0 1.5539057,0 c 0.891677,0 1.6431,0.6445036 1.6431,1.4447265 l 0,1.9443807 C 13,12.188829 12.247925,13.034085 11.3569,13 l -4.3569001,0 0,-1.611393 0,-1.4438807 0,-1.011393 0,-0.4333335 0,-2.1666664 0,-1.3335001 4.0000001,0 0,-0.7916667 C 11,3 9.3758,1.9999999 7.275,1.9999999 Z"/>
 <path style="fill:#ffffff;opacity:0.2" d="M 6.7910156 2 C 4.6902154 2 3 3.2085677 3 4.7089844 L 3 5.2089844 C 3 3.7085677 4.6902154 2.5 6.7910156 2.5 L 7.2753906 2.5 C 9.3761906 2.5 11 3.5008178 11 4.7089844 L 11 4.2089844 C 11 3.0008178 9.3761906 2 7.2753906 2 L 6.7910156 2 z M 8 6 L 8 6.5 L 13.291016 6.5 C 14.791165 6.4716508 16 8.0241998 16 10.125 L 16 9.625 C 16 7.5241998 14.791165 5.9716508 13.291016 6 L 8 6 z M 13 11.388672 C 13 12.188894 12.248447 13.034085 11.357422 13 L 7 13 L 7 13.5 L 11.357422 13.5 C 12.248447 13.534085 13 12.688894 13 11.888672 L 13 11.388672 z"/>
 <path style="fill:#ffc851" d="m 11.791667,21.9995 c -2.1008007,0 -3.7916674,-1.207917 -3.7916674,-2.708333 l 0,-3.791667 0,-6.5 8.6666664,0 1.625,0 c 1.500417,0 2.708333,1.690867 2.708333,3.791667 l 0,1.583833 c 0,2.1008 -1.208184,3.653349 -2.708333,3.625 L 13,18 l 0,-2 1.802994,0 1.553906,0 C 17.248577,16 18,15.355497 18,14.555274 l 0,-1.944381 C 18,11.810671 17.247925,10.965415 16.3569,10.9995 l -4.3569,0 0,1.611393 0,1.443881 0,1.011393 0,0.433333 0,2.166667 0,1.3335 4,0 0,0.791666 C 16,20.9995 14.3758,21.9995 12.275,21.9995 Z"/>
 <path style="fill:#ffffff;opacity:0.2" d="M 8 9 L 8 9.5 L 16.666016 9.5 L 18.291016 9.5 C 19.791433 9.5 21 11.190216 21 13.291016 L 21 12.791016 C 21 10.690216 19.791433 9 18.291016 9 L 16.666016 9 L 8 9 z M 18 14.554688 C 18 15.35491 17.249099 16 16.357422 16 L 14.802734 16 L 13 16 L 13 16.5 L 14.802734 16.5 L 16.357422 16.5 C 17.249099 16.5 18 15.856864 18 15.056641 L 18 14.554688 z M 12 19 L 12 19.5 L 16 19.5 L 16 19 L 12 19 z"/>
 <path style="fill:#4795d1" d="M 12.912109,9 C 12.964789,9.1406561 13,9.287214 13,9.4433594 L 13,11 16,11 16,9.625 C 16,9.408981 15.979631,9.2033025 15.955078,9 Z"/>
 <rect style="opacity:0.2" width="1" height="1" x="9" y="3.5"/>
 <rect style="fill:#ffffff" width="1" height="1" x="9" y="3"/>
 <rect style="opacity:0.2" width="1" height="1" x="14" y="20.5"/>
 <rect style="fill:#ffffff" width="1" height="1" x="14" y="20"/>
</svg>
